!! Cantigas de Santa Maria, No. 23
!! Transcribed by Higinio Angle/s
!! From Higinio Angle/s, "La Mu/sica de las Cantigas de Santa Mari/a
!! del rey Alfonso el Sabio", Barcelona: Biblioteca Central, 1943
**kern	**text
*M3/4	*Galician
*k[b-]	*
=1	.
4a	Co-
2cc	-mo
=2	.
4b-	Deus
2g	fez
=3	.
4a	uy-
(4cc	-nno
4b-)	.
=4	.
8a	d'a-
8g	.
2f	-gua
=5	.
4g	ant'
2e	ar-
=6	.
4g	-che-
2a	-te-
=7	.
2.g	-cry-
=8	.
2.g'	nno,
=9	.
4a	ben
2cc	as-
=10	.
4b-	-si
2g	de-
=11	.
4a	-pois
(4cc	sa
4b-)	.
=12	.
(8a	Madr'
8g)	.
2f	a-
=13	.
4g	-cre-
2e	-cen-
=14	.
4g	-tou
2a	o
=15	.
2.f	vi-
=16	.
2.f,	-nno.
=17	.
4a	D'es-
2cc	-to
=18	.
4cc	di-
2b-	-rei
=19	.
4dd	un
2cc	mi-
=20	.
4cc	-ra-
2a	-gre
=21	.
4cc	que
2b-,	fez,
=22	.
(8a	en
8g)	.
2f	Bre-
=23	.
2.a	-ta-
=24	.
2.a,	-nna,
=25	.
4a	San-
2cc	-ta
=26	.
4cc	Ma-
2b-	-ri-
=27	.
4dd	-a,
2cc	por
=28	.
4cc	hu~-
2a	-a
=29	.
4cc	do-
2b-	-na
=30	.
(8a	mui
8g)	.
2e	sen
=31	.
2.f	sa-
=32	.
2.f,	-nna,
=33	.
4a	en
2cc	que
=34	.
4b-	mui-
2g	-to
=35	.
4a	bon
(4cc	cos-
4b-)	.
=36	.
(8a	-tum'
8g)	.
2f	e
=37	.
4g	mui-
2e	-ta
=38	.
4g	bo~-
2a	-a
=39	.
2.g	ma-
=40	.
2.g,	-mma,
=41	.
4a	Deus
2cc	po-
=42	.
4b-	se-
2g	-ra,
=43	.
4a	que
(4cc	quis
4b-)	.
=44	.
(8a	d'e-
8g)	.
2f	-la
=45	.
4g	se-
2e	-er
=46	.
4g	seu
2a	ve-
=47	.
(4a	-zy
4g	.
4f)	.
=48	.
2.f	-nno.
==	==
*-	*-
!! Three notes beyond the double barline have been omitted
!! in this encoding.
